!!!COM: Gabriel Faure/
!!!CNT: Francais
!!!TXO: Francais
!!!OTL: "La lune blanche luit dans les bois"
!!!LYR: Verlaine
!!!OPR: La bonne chanson
!!!OPS: Op. 61
!!!ONM: No. 3
!!!ENC: Emily Thomas
!!!YOR: CD Sheet Music French Art Songs, The Ultimate Collection
!!!YOR: CD Sheet Music, LLC 2003
!!!ODT: 1894/
!!NB: Vocal melody and text encoded.
**kern	**silbe
=1	=1
*clefG2	*
*k[f#c#g#d#a#e#]	*
*M9/8	*
*MM[Andantino]	*
2.r	.
4.r	.
=2	=2
4r	.
8r	.
4r	.
{8f#	{La
4cc#	lu-
8dd#	-ne
=3	=3
4.een	blan-
4een	-che
8cc#	luit
4an	dans
8g#	les
=4	=4
[2.f#	bois;
4f#]}	|}
8r	.
=5	=5
4r	.
8r	.
4r	.
{8f##	{De
4b	cha-
8b	-que
=6	=6
4.b	bran-
[4.a#	-che
8a#]}	|}
8r	.
8r	.
=7	=7
{4.cc#	{part
4b#	u-
8a#	-ne
[4.a#	voix
=8	=8
8a#]}	|}
8r	.
8r	.
4r	.
{8a#	{sons
4b#	la
8g#	ra-
=9	=9
*M3/4	*
2.bn	-me/-
=10	=10
8a#	|
8g#	|
[4f#	-e
8f#]}	|}
8r	.
=11	=11
*M4/4	*
2r	.
4r	.
{[4dd#	{O
=12	=12
*M9/8	*
2.dd#]	|
4ee#	bien-
8ff#	-ai-
=13	=13
2.ff#	-me/-
4.f#	|
=14	=14
[2.f#	-e
8f#]}	|}
8r	.
8r	.
=15	=15
2.r	.
4.r	.
=16	=16
4r	.
8r	.
4r	.
{8an	{L'e/-
4an	-tang
8an	re-
=17	=17
2.ccn	-fle\-
4.b-}	-te,}
=18	=18
4r	.
{8a#	{pro-
[4.cc#	-fond
4cc#]	|
8f#	mi-
=19	=19
2.f#}	-voir}
4.r	.
=20	=20
4r	.
8r	.
4r	.
{8ccn	{La
4ddn	sil-
8ddn	-hou-
=21	=21
2.ee-	-et-
4ccn	-te
8a-	du
=22	=22
[4.b-	sau-
4b-]	|
8e-	-le
[4.e-	noir
=23	=23
8e-]}	|}
8r	.
8r	.
{4.cc-	{Ou\
4cc-	le
8b-	vent
=24	=24
2.b-	pleu-
[4.a-	-re
=25	=25
4.a-_	|
8a-]}	|}
8r	.
8r	.
4r	.
8r	.
=26	=26
4r	.
8r	.
{2.b	{He^
=27	=27
[2.een	-vous
8ee]	|
8r	.
8ddn	c'est
=28	=28
2.cc#	l'heu-
[4.cc#	-re
=29	=29
4.cc#_	|
8cc#]}	|}
8r	.
8r	.
4r	.
8r	.
=30	=30
2.r	.
4.r	.
=31	=31
4r	.
8r	.
4r	.
8r	.
{4.g#	{Un
=32	=32
*M3/4	*
[2g#	vas-
8g#]	-te
8g#	et
=33	=33
8a#	tender
8b	a-
4.cc#	-pai-
8g#	-se-
=34	=34
4b	-ment
4b	Sem-
8b	-ble
8dd#	des-
=35	=35
4cc#	-cen-
8cc#	-dre
8b#	du
8f#	fir-
8g#	-ma-
=36	=36
2an	-ment
4an	que
=37	=37
4.g#	l'as-
8f#	-tre
4g#	i-
=38	=38
2an	-ri-
4f#	|
=39	=39
[2dn	-se.
8dn]}	|}
8r	.
=40	=40
2.r	.
=41	=41
2.r	.
=42	=42
2.r	.
=43	=43
4r	.
{4f#	{C'est
4ff#	|
=44	=44
4.ff#	l'heu-
8een	-re
4ddn	ex-
=45	=45
2cc#	-qui-
4f#	|
=46	=46
[2.f#	-se.
=47	=47
2.f#]}	|}
==	==
*-	*-
